svg/blobs-icons/no-decorations/security-shield.svg

<svg xmlns="http://www.w3.org/2000/svg" xmlns:xlink="http://www.w3.org/1999/xlink" preserveAspectRatio="xMidYMid" width="204" height="216" viewBox="0 0 204 216"><defs><style>.cls-3{fill:#142a3b}.cls-4{fill:#060606;opacity:.35}.cls-7{fill:#fbb713}.cls-8{fill:#ededed}</style></defs><g id="group-26svg"><path d="M154.248 18.462c-20.2.0-37.849-6.58-47.394-16.383C104.116-.733 99.543-.733 96.804 2.079 87.26 11.882 69.611 18.462 49.41 18.462c-14.963.0-28.502-3.619-38.393-9.48C6.149 6.097-.003 9.384-.003 15.041V102.92c0 62.177 45.592 112.583 101.832 112.583 56.241.0 101.832-50.406 101.832-112.583C203.661 102.92 203.563 43.631 203.403 15.164 203.372 9.546 197.277 6.274 192.429 9.114c-9.875 5.784-23.328 9.348-38.181 9.348z" id="path-1" class="cls-3" fill-rule="evenodd"/><path d="M88.863 9.276c9.545 9.801 27.194 16.382 47.394 16.382 14.852.0 28.306-3.564 38.181-9.348C174.757 16.123 175.09 16.032 175.418 15.897 168.905 17.545 161.758 18.462 154.248 18.462c-20.2.0-37.849-6.58-47.394-16.383C104.116-.733 99.543-.733 96.804 2.079 94.425 4.523 91.54 6.765 88.241 8.756 88.45 8.926 88.67 9.078 88.863 9.276z" id="path-2" class="cls-4" fill-rule="evenodd"/><path d="M31.419 25.658c15.141.0 28.847-3.697 38.783-9.677-6.418 1.587-13.427 2.481-20.792 2.481-14.963.0-28.501-3.619-38.393-9.48C6.149 6.098-.003 9.384-.003 15.042v4.604c8.901 3.773 19.71 6.012 31.422 6.012z" id="path-3" class="cls-4" fill-rule="evenodd"/><path d="M203.403 15.164C203.372 9.546 197.277 6.275 192.429 9.114 187.99 11.713 182.8 13.833 177.114 15.413 181.27 14.776 185.386 17.746 185.412 22.361 185.571 50.827 185.67 110.117 185.67 110.117c0 45.008-23.898 83.832-58.422 101.849 43.94-12.482 76.413-56.571 76.413-109.046C203.661 102.92 203.563 43.631 203.403 15.164z" id="path-4" class="cls-4" fill-rule="evenodd"/><path d="M101.829 25.156C100.429 25.156 99.028 25.695 97.979 26.774 90.665 34.285 77.141 39.327 61.661 39.327c-11.466.0-21.84-2.773-29.42-7.264C28.511 29.853 23.797 32.37 23.797 36.706v67.34C23.797 104.341 23.815 104.631 23.817 104.926h78.012s0-79.77.0-79.77z" id="path-5" class="cls-7" fill-rule="evenodd"/><path d="M101.829 104.926s0 85.391.0 85.391c42.83.0 77.584-38.154 78.012-85.391H101.829z" id="path-6" class="cls-8" fill-rule="evenodd"/><path d="M59.374 173.721C58.658 173.721 57.933 173.507 57.304 173.063c-12.021-8.493-21.531-19.675-27.502-32.336C28.955 138.932 29.723 136.79 31.518 135.944 33.316 135.1 35.452 135.867 36.299 137.66c5.445 11.543 14.142 21.757 25.152 29.534C63.072 168.339 63.455 170.58 62.311 172.202 61.612 173.191 60.501 173.721 59.374 173.721z" id="path-7" class="cls-8" fill-rule="evenodd"/></g></svg>

<svg xmlns="http://www.w3.org/2000/svg" xmlns:xlink="http://www.w3.org/1999/xlink" preserveAspectRatio="xMidYMid" width="204" height="216" viewBox="0 0 204 216">
  <defs>
    <style>

      .cls-3 {
        fill: #142a3b;
      }

      .cls-4 {
        fill: #060606;
        opacity: 0.35;
      }

      .cls-7 {
        fill: #fbb713;
      }

      .cls-8 {
        fill: #ededed;
      }
    </style>
  </defs>
  <g id="group-26svg">
    <path d="M154.248,18.462 C134.048,18.462 116.399,11.882 106.854,2.079 C104.116,-0.733 99.543,-0.733 96.804,2.079 C87.260,11.882 69.611,18.462 49.410,18.462 C34.447,18.462 20.908,14.843 11.017,8.982 C6.149,6.097 -0.003,9.384 -0.003,15.041 C-0.003,15.041 -0.003,102.920 -0.003,102.920 C-0.003,165.097 45.589,215.503 101.829,215.503 C158.070,215.503 203.661,165.097 203.661,102.920 C203.661,102.920 203.563,43.631 203.403,15.164 C203.372,9.546 197.277,6.274 192.429,9.114 C182.554,14.898 169.101,18.462 154.248,18.462 Z" id="path-1" class="cls-3" fill-rule="evenodd"/>
    <path d="M88.863,9.276 C98.408,19.077 116.057,25.658 136.257,25.658 C151.109,25.658 164.563,22.094 174.438,16.310 C174.757,16.123 175.090,16.032 175.418,15.897 C168.905,17.545 161.758,18.462 154.248,18.462 C134.048,18.462 116.399,11.882 106.854,2.079 C104.116,-0.733 99.543,-0.733 96.804,2.079 C94.425,4.523 91.540,6.765 88.241,8.756 C88.450,8.926 88.670,9.078 88.863,9.276 Z" id="path-2" class="cls-4" fill-rule="evenodd"/>
    <path d="M31.419,25.658 C46.560,25.658 60.266,21.961 70.202,15.981 C63.784,17.568 56.775,18.462 49.410,18.462 C34.447,18.462 20.909,14.843 11.017,8.982 C6.149,6.098 -0.003,9.384 -0.003,15.042 C-0.003,15.042 -0.003,19.646 -0.003,19.646 C8.898,23.419 19.707,25.658 31.419,25.658 Z" id="path-3" class="cls-4" fill-rule="evenodd"/>
    <path d="M203.403,15.164 C203.372,9.546 197.277,6.275 192.429,9.114 C187.990,11.713 182.800,13.833 177.114,15.413 C181.270,14.776 185.386,17.746 185.412,22.361 C185.571,50.827 185.670,110.117 185.670,110.117 C185.670,155.125 161.772,193.949 127.248,211.966 C171.188,199.484 203.661,155.395 203.661,102.920 C203.661,102.920 203.563,43.631 203.403,15.164 Z" id="path-4" class="cls-4" fill-rule="evenodd"/>
    <path d="M101.829,25.156 C100.429,25.156 99.028,25.695 97.979,26.774 C90.665,34.285 77.141,39.327 61.661,39.327 C50.195,39.327 39.821,36.554 32.241,32.063 C28.511,29.853 23.797,32.370 23.797,36.706 C23.797,36.706 23.797,104.046 23.797,104.046 C23.797,104.341 23.815,104.631 23.817,104.926 C23.817,104.926 101.829,104.926 101.829,104.926 C101.829,104.926 101.829,25.156 101.829,25.156 Z" id="path-5" class="cls-7" fill-rule="evenodd"/>
    <path d="M101.829,104.926 C101.829,104.926 101.829,190.317 101.829,190.317 C144.659,190.317 179.413,152.163 179.841,104.926 C179.841,104.926 101.829,104.926 101.829,104.926 Z" id="path-6" class="cls-8" fill-rule="evenodd"/>
    <path d="M59.374,173.721 C58.658,173.721 57.933,173.507 57.304,173.063 C45.283,164.570 35.773,153.388 29.802,140.727 C28.955,138.932 29.723,136.790 31.518,135.944 C33.316,135.100 35.452,135.867 36.299,137.660 C41.744,149.203 50.441,159.417 61.451,167.194 C63.072,168.339 63.455,170.580 62.311,172.202 C61.612,173.191 60.501,173.721 59.374,173.721 Z" id="path-7" class="cls-8" fill-rule="evenodd"/>
  </g>
</svg>
